X:460
T:Dance in Laura & Lenza.2voices RH.460
T:Laura & Lenza. RH.460
R:march
S:Rev.R.Harrison’s MS,c1815,Cumbria
N:Another non-existent polka. PJH.
O:England
A:Temple Sowerby,Cumbria
Z:vmp.Simon Wilson. Review PJH, 2008.
M:2/4
L:1/16
Q:1/4=80
K:D
[V:1]|:fe|(dA)f2 (dA)f2|e2a2a2 (fe)|(dA)f2 (dA)f2|e2A2A2 (fe)|
[V:2]|:AG|F2A2 F2A2|G2A2 G2A2|F2A2 F2A2|G2A2 F2AG|
%
[V:1] (dA)f2 (dA)f2|e2a2a2 (fe)|(dA)f2 (ed)a2|f2d2 d2:|
[V:2] F2A2 F2A2|G2A2 E2AG|F2A2 G2A2|F2A2 F2:|
%
[V:1]|:(cd)|e^ded efga|f2d2 d2 (ed)|cded cABc|dfaf d2cd|
[V:2]|:AB|c2A2 c2A2|d2A2 F2 (GF)|EFGE E2G2|F3A E2AB|
%
[V:1] e^ded efga|f2d2 d2 ed|cded cABc|d2d2 d2:|
[V:2] c2A2 c2A2|d2A2 F2GF|EFGE E2G2|G2A2 F2:|

